svg/600/sharp/texture-fill.svg

<svg xmlns="http://www.w3.org/2000/svg" width="48" height="48" viewBox="0 -960 960 960"><path d="M108.738-106.869v-59.029L796.13-852.696h55.566v58.028L163.87-106.869h-55.132Zm-2.869-263.999V-485.13L474.87-854.696h114.262L105.869-370.868Zm0-322.261v-161.567h161.002L105.869-693.129Zm587.26 587.26 161.567-161.002v161.002H693.129Zm-322.261 0 483.828-483.263v114.262L485.13-105.869H370.868Z"/></svg>

<svg xmlns="http://www.w3.org/2000/svg" width="48" height="48" viewBox="0 -960 960 960"><path d="M108.74-106.87v-59.03l687.39-686.8h55.57v58.03l-687.83 687.8h-55.13Zm-2.87-264v-114.26l369-369.57h114.26L105.87-370.87Zm0-322.26V-854.7h161l-161 161.57Zm587.26 587.26 161.57-161v161H693.13Zm-322.26 0L854.7-589.13v114.26l-369.57 369H370.87Z"/></svg>
